X:87
T:Highland Piper's Lament
R:
C:Bruce Osborne  --  Oct. 1992
Z:abc by bosborne@kos.net
M:3/4
L:1/8
K:G
DG A|B3 D GB|A3 D FA|G3 D B,D|G,3 g fe|\
d3 B GB|d3 B GB|A4 AB|A3 D GA|\
B3 D GB|A3 D FA|G3 D B,D|G,3 g fe|\
d3 B GB|A3 D FA|G4 GA|G3||\
DG B|d3 B GB|A3 D FA|G3 D B,D|G,3 D GA|\
B3 D GB|d3 B GB|A4 AB|A3 D GB|\
d3 B GB|A3 D FA|G3 D B,D|G,3 g fe|\
d3 B GB|A3 D FA|G4 GA|G3||
